flaticon/emoticons/superhero-2.svg

<svg xmlns="http://www.w3.org/2000/svg" width="32" height="32" viewBox="0 0 24 24">
    <path d="M 12 0 C 5.382812 0 0 5.382812 0 12 C 0 18.617188 5.382812 24 12 24 C 18.617188 24 24 18.617188 24 12 C 24 5.382812 18.617188 0 12 0 Z M 4.824219 14.183594 L 19.71875 14.183594 C 19.667969 14.339844 19.636719 14.503906 19.636719 14.675781 L 19.636719 15 C 19.636719 18.457031 16.332031 21.273438 12.273438 21.273438 C 8.210938 21.273438 4.910156 18.457031 4.910156 15 L 4.910156 14.699219 C 4.910156 14.519531 4.875 14.347656 4.824219 14.183594 Z M 20.949219 13.046875 C 20.890625 13.058594 20.835938 13.082031 20.78125 13.101562 C 20.761719 13.101562 20.746094 13.089844 20.726562 13.089844 L 3.816406 13.089844 C 3.785156 13.089844 3.753906 13.105469 3.722656 13.109375 C 3.660156 13.09375 3.597656 13.070312 3.53125 13.058594 C 1.898438 12.773438 1.242188 11.304688 1.632812 8.777344 C 1.648438 8.652344 1.988281 5.957031 7.023438 5.957031 C 7.371094 5.957031 7.746094 5.96875 8.144531 5.996094 C 8.164062 6 8.183594 6 8.203125 6 C 8.210938 6 8.914062 5.976562 9.667969 6.25 C 11.171875 6.792969 12.828125 6.792969 14.332031 6.25 C 15.085938 5.976562 15.789062 6 15.828125 6 C 22.03125 5.867188 22.355469 8.652344 22.371094 8.8125 C 22.636719 10.519531 22.609375 12.644531 20.949219 13.046875 Z M 12 1.089844 C 15.683594 1.089844 18.9375 2.929688 20.914062 5.734375 C 19.792969 5.222656 18.175781 4.863281 15.839844 4.910156 C 15.804688 4.90625 14.921875 4.875 13.960938 5.222656 C 12.695312 5.683594 11.304688 5.683594 10.039062 5.222656 C 9.171875 4.910156 8.371094 4.90625 8.191406 4.910156 C 5.949219 4.753906 4.363281 5.042969 3.242188 5.519531 C 5.234375 2.839844 8.410156 1.089844 12 1.089844 Z M 12 22.910156 C 6.234375 22.910156 1.511719 18.410156 1.128906 12.742188 C 1.789062 13.710938 2.765625 14.035156 3.34375 14.136719 C 3.617188 14.183594 3.816406 14.421875 3.816406 14.699219 L 3.816406 15 C 3.816406 19.058594 7.609375 22.363281 12.273438 22.363281 C 16.933594 22.363281 20.726562 19.058594 20.726562 15 L 20.726562 14.675781 C 20.726562 14.410156 20.925781 14.175781 21.207031 14.105469 C 21.71875 13.980469 22.367188 13.683594 22.859375 13.007812 C 22.347656 18.554688 17.675781 22.910156 12 22.910156 Z M 12 22.910156"/>
    <path d="M9.273438 18.546875L14.726562 18.546875C15.027344 18.546875 15.273438 18.300781 15.273438 18 15.273438 17.699219 15.027344 17.453125 14.726562 17.453125L9.273438 17.453125C8.972656 17.453125 8.726562 17.699219 8.726562 18 8.726562 18.300781 8.972656 18.546875 9.273438 18.546875zM19.089844 8.183594L4.910156 8.183594C4.007812 8.183594 3.273438 8.914062 3.273438 9.816406 3.273438 10.71875 4.007812 11.453125 4.910156 11.453125L19.089844 11.453125C19.992188 11.453125 20.726562 10.71875 20.726562 9.816406 20.726562 8.914062 19.992188 8.183594 19.089844 8.183594zM19.089844 10.363281L4.910156 10.363281C4.609375 10.363281 4.363281 10.121094 4.363281 9.816406 4.363281 9.515625 4.609375 9.273438 4.910156 9.273438L19.089844 9.273438C19.390625 9.273438 19.636719 9.515625 19.636719 9.816406 19.636719 10.121094 19.390625 10.363281 19.089844 10.363281zM19.089844 10.363281"/>
</svg>

<svg xmlns="http://www.w3.org/2000/svg" width="32" height="32" viewBox="0 0 24 24">
    <path d="M12 0C5.383 0 0 5.383 0 12s5.383 12 12 12 12-5.383 12-12S18.617 0 12 0zM4.824 14.184H19.72c-.051.156-.082.32-.082.492V15c0 3.457-3.305 6.273-7.364 6.273-4.062 0-7.363-2.816-7.363-6.273v-.3c0-.18-.035-.352-.086-.516zm16.125-1.137c-.058.012-.113.035-.168.055-.02 0-.035-.012-.054-.012H3.817c-.032 0-.063.015-.094.02-.063-.016-.125-.04-.192-.051-1.633-.286-2.289-1.754-1.898-4.282.015-.125.355-2.82 5.39-2.82A16.397 16.397 0 0 1 8.203 6c.008 0 .711-.023 1.465.25a6.88 6.88 0 0 0 4.664 0c.754-.273 1.457-.25 1.496-.25 6.203-.133 6.527 2.652 6.543 2.813.266 1.707.238 3.832-1.422 4.234zM12 1.09c3.684 0 6.938 1.84 8.914 4.644-1.121-.511-2.738-.87-5.074-.824a5.347 5.347 0 0 0-1.88.313 5.734 5.734 0 0 1-3.92 0A5.468 5.468 0 0 0 8.19 4.91c-2.242-.156-3.828.133-4.949.61C5.234 2.84 8.41 1.09 12 1.09zm0 21.82c-5.766 0-10.488-4.5-10.871-10.168.66.969 1.637 1.293 2.215 1.395a.57.57 0 0 1 .472.562V15c0 4.059 3.793 7.363 8.457 7.363 4.66 0 8.454-3.304 8.454-7.363v-.324c0-.266.199-.5.48-.57a2.85 2.85 0 0 0 1.652-1.098C22.348 18.555 17.676 22.91 12 22.91zm0 0"/>
    <path d="M9.273 18.547h5.454c.3 0 .546-.246.546-.547 0-.3-.246-.547-.546-.547H9.273c-.3 0-.546.246-.546.547 0 .3.246.547.546.547zm0 0M19.09 8.184H4.91a1.635 1.635 0 1 0 0 3.27h14.18a1.635 1.635 0 0 0 0-3.27zm0 2.18H4.91a.546.546 0 1 1 0-1.09h14.18a.545.545 0 1 1 0 1.09zm0 0"/>
</svg>
